images/advantages-souvenir.svg

<svg width="64" height="76" viewBox="0 0 64 76" fill="none" xmlns="http://www.w3.org/2000/svg">
<path d="M61.1 22.4625H61H36.3C50.1 15.5576 51.2 11.1546 50.7 8.75288C49.5 4.75007 45 1.74797 40.7 3.34909C35.1 5.45056 33.6 13.7564 32.1 19.7606C30.1 13.6563 28.3 5.95091 23.9 2.04818C22.6 0.947407 20.8 -0.253434 18.1 0.0467764C14.1 0.447057 8.3 5.45056 10.6 11.0545C12.9 16.4583 20.3 19.8607 25.2 22.5626H3.2H2.9C1.3 22.5626 0 23.8635 0 25.4646V36.7725C0 38.3736 1.3 39.6745 2.9 39.6745H3.2V72.9979V75.3996V76H61V75.4996V72.9979V39.5745H61.1C62.7 39.5745 64 38.2736 64 36.6724V25.3645C64 23.7634 62.7 22.4625 61.1 22.4625ZM42.4 5.85084C44.5 5.55063 47.4 7.15176 47.7 9.05309C48.1 11.8551 44.3 14.3568 42.6 15.4576C40.1 17.1588 37.7 18.0594 35.3 19.5604C36.2 15.8579 37.8 6.55133 42.4 5.85084ZM19.5 15.8579C17.3 14.3568 13 11.4548 13.1 8.05239C13.2 4.44986 18.8 1.44776 21.9 4.14965C25.8 7.55203 27.6 15.2574 29 20.7613C25.8 19.2602 22.7 17.9593 19.5 15.8579ZM25.5 72.9979H6.1V39.5745H25.5V72.9979ZM25.5 36.4723H3V25.4646H25.5V36.4723ZM35.7 36.4723V39.4744V72.9979H28.5V39.5745V36.5724V25.5647H35.7V36.4723ZM58 72.9979H38.6V39.5745H58V72.9979ZM60.9 36.4723H38.6V25.4646H60.9V36.4723Z" fill="#83B3D3"/>
</svg>

<svg width="64" height="76" fill="none" xmlns="http://www.w3.org/2000/svg"><path d="M61.1 22.46H36.3c13.8-6.9 14.9-11.3 14.4-13.7-1.2-4.01-5.7-7.01-10-5.41-5.6 2.1-7.1 10.4-8.6 16.41-2-6.1-3.8-13.8-8.2-17.71-1.3-1.1-3.1-2.3-5.8-2-4 .4-9.8 5.4-7.5 11 2.3 5.4 9.7 8.81 14.6 11.51H2.9a2.9 2.9 0 0 0-2.9 2.9v11.31c0 1.6 1.3 2.9 2.9 2.9h.3V76H61V39.57h.1c1.6 0 2.9-1.3 2.9-2.9v-11.3c0-1.6-1.3-2.9-2.9-2.9ZM42.4 5.86c2.1-.3 5 1.3 5.3 3.2.4 2.8-3.4 5.3-5.1 6.4-2.5 1.7-4.9 2.6-7.3 4.1.9-3.7 2.5-13 7.1-13.7Zm-22.9 10c-2.2-1.5-6.5-4.4-6.4-7.8.1-3.61 5.7-6.61 8.8-3.91 3.9 3.4 5.7 11.1 7.1 16.61-3.2-1.5-6.3-2.8-9.5-4.9Zm6 57.14H6.1V39.57h19.4V73Zm0-36.53H3v-11h22.5v11Zm10.2 0V73h-7.2V25.57h7.2v10.9ZM58 73H38.6V39.57H58V73Zm2.9-36.53H38.6v-11h22.3v11Z" fill="#83B3D3"/></svg>
